X:1
T:Title
L:1/8
Q:1/4=112
M:4/4
K:C
V:1 treble nm="Church Organ, Staff"
V:1
 E2 E2 E2 F2 | ED E4 E2 | A2 c2 c2 B2 | A^G E6 | E2 E2 E2 F2 | ED E4 E2 | c2 B2 AG A2 | G^F E6 | %8
w: By~W.~C.~Dix * * *||||||||
 E2 B2 B2 c2 | BA B4 E2 | e2 d2 c2 B2 | A2 ^G4 E2- | E2 ^c2 c2 B_B | B^c A4 E2 | E2 e2 e2 d^c | %15
w: |||||||
 de ^c4 A2 | A2 ^f2 e2 d2 | ^c2 B2 A2 ^G2 | ^F2 E2 A2 A^G | AB A6 |] %20
w: |||||

